X:1
T:Things about Comin' My Way
M:6/8
L:1/8
K:E
 z2 E G2 A| B3/2 B3/2- B3-| B2 B B2 E| G6-| G2 B B2 A| =G3/2 E3/2- E3|\
 z2 B/2B/2 A2 =G| =E6-| E2 B, E2 E| ^G6-| G2 E G3| E3/2 B,3/2- B,3|\
 z6| G2 E G3| E3/2 B,3/2 D2 E-| E6|

